tenants/vtwonen/icons/thumbs_up.svg

<svg fill="none" height="24" viewBox="0 0 24 24" width="24" xmlns="http://www.w3.org/2000/svg"><path d="m17.4021 20.9903h-3.7593c-.1381 0-1.0656-.0773-1.5589-.2418l-3.06861-1.0059c-.40454-.1354-1.09521-.5223-1.38135-.6867h-.87814c.04933.2031.0888.2902.12826.3772.28614.561-.18746 1.151-.6808 1.4799l-.12827.087h-1.06562c-1.12481 0-2.12136-.7157-2.44696-1.741-.37494-1.209-.56241-2.4471-.56241-3.6948 0-1.5862.296-3.1435.88801-4.604.37494-.9382 1.33202-1.57654 2.38777-1.57654h1.04588c.40454 0 .75974.20312.95708.55132.09866.16442.13813.35792.13813.54162.48347-.1837.91761-.57064 1.21362-1.09294.51307-.89951 1.22348-1.52821 2.06211-1.8087 1.0163-.33853 1.7761-.95755 2.0721-1.69264.1874-.46427.2861-.94788.2861-1.44116v-.25148c0-.31918.1283-.61902.3552-.84148.227-.22246.5427-.3482.8584-.3482.7104 0 1.3814.27082 1.8846.76411.5032.49328.7795 1.15099.7795 1.84739 0 1.16067-.2664 2.28264-.7795 3.31757-.0592.12574-.0197.23213.0197.29017.0691.09672.1776.16442.296.16442h2.9502c1.2827 0 2.4174 1.01554 2.5358 2.25364.0296.3482.0493.7061.0493 1.0639 0 2.6406-.9176 5.2424-2.5851 7.3219-.4933.619-1.2235.9672-1.9931.9672zm-10.89297-2.9016h1.39122l.1184.0677c.24667.1451.97681.561 1.30241.6674l3.06854 1.0059c.2862.0967.9374.1644 1.2827.1934h3.7198c.4736 0 .9176-.2225 1.2235-.5997 1.5293-1.9054 2.3779-4.2944 2.368-6.7222 0-.3288-.0197-.6577-.0493-.9769-.0691-.7447-.7795-1.3734-1.5491-1.3734h-5.3774v-.96724h1.1445c-.0789-.29016-.0493-.59967.0888-.88017.4539-.90919.6809-1.87641.6809-2.89199 0-.43525-.1777-.85116-.4934-1.16067s-.74-.48361-1.184-.48361c-.0592 0-.1184.01935-.1579.06771-.0394.04836-.069.09672-.069.16443v.25147c0 .61902-.1184 1.2187-.3552 1.79904-.4046 1.00591-1.3814 1.81837-2.6739 2.25362-.7598.25148-1.24326.88017-1.51953 1.36379-.57228 1.00592-1.52936 1.64432-2.54564 1.71202-.60187 1.1606-.91761 2.4374-.91761 3.7431 0 .9576.16774 1.8861.49334 2.7856zm-1.24322-7.7378c-.65121 0-1.23335.3869-1.47015.9575-.54268 1.3541-.81895 2.7856-.81895 4.2558 0 1.151.16774 2.2923.51308 3.395.19733.619.80907 1.0542 1.49975 1.0542h.74988c.10853-.0967.2072-.2031.22693-.2611-.10853-.1451-.2072-.3869-.296-1.0736-.43414-1.0833-.66108-2.2246-.65121-3.3853 0-1.6926.47361-3.3466 1.37148-4.7878.02961-.0483.01974-.087 0-.116-.01973-.0387-.04933-.0484-.09866-.0484h-1.04588z" fill="#010101"/></svg>

<svg width="24" height="24" viewBox="0 0 24 24" fill="none" xmlns="http://www.w3.org/2000/svg">
<path d="M17.4021 20.9903H13.6428C13.5047 20.9903 12.5772 20.913 12.0839 20.7485L9.01529 19.7426C8.61075 19.6072 7.92008 19.2203 7.63394 19.0559H6.7558C6.80513 19.259 6.8446 19.3461 6.88406 19.4331C7.1702 19.9941 6.6966 20.5841 6.20326 20.913L6.07499 21H5.00937C3.88456 21 2.88801 20.2843 2.56241 19.259C2.18747 18.05 2 16.8119 2 15.5642C2 13.978 2.296 12.4207 2.88801 10.9602C3.26295 10.022 4.22003 9.38366 5.27578 9.38366H6.32166C6.7262 9.38366 7.0814 9.58678 7.27874 9.93498C7.3774 10.0994 7.41687 10.2929 7.41687 10.4766C7.90034 10.2929 8.33448 9.90596 8.63049 9.38366C9.14356 8.48415 9.85397 7.85545 10.6926 7.57496C11.7089 7.23643 12.4687 6.61741 12.7647 5.88232C12.9521 5.41805 13.0508 4.93444 13.0508 4.44116V4.18968C13.0508 3.8705 13.1791 3.57066 13.406 3.3482C13.633 3.12574 13.9487 3 14.2644 3C14.9748 3 15.6458 3.27082 16.149 3.76411C16.6522 4.25739 16.9285 4.9151 16.9285 5.6115C16.9285 6.77217 16.6621 7.89414 16.149 8.92907C16.0898 9.05481 16.1293 9.1612 16.1687 9.21924C16.2378 9.31596 16.3463 9.38366 16.4647 9.38366H19.4149C20.6976 9.38366 21.8323 10.3992 21.9507 11.6373C21.9803 11.9855 22 12.3434 22 12.7012C22 15.3418 21.0824 17.9436 19.4149 20.0231C18.9216 20.6421 18.1914 20.9903 17.4218 20.9903H17.4021ZM6.50913 18.0887H7.90035L8.01875 18.1564C8.26542 18.3015 8.99556 18.7174 9.32116 18.8238L12.3897 19.8297C12.6759 19.9264 13.3271 19.9941 13.6724 20.0231H17.3922C17.8658 20.0231 18.3098 19.8006 18.6157 19.4234C20.145 17.518 20.9936 15.129 20.9837 12.7012C20.9837 12.3724 20.964 12.0435 20.9344 11.7243C20.8653 10.9796 20.1549 10.3509 19.3853 10.3509H14.0079V9.38366H15.1524C15.0735 9.0935 15.1031 8.78399 15.2412 8.50349C15.6951 7.5943 15.9221 6.62708 15.9221 5.6115C15.9221 5.17625 15.7444 4.76034 15.4287 4.45083C15.113 4.14132 14.6887 3.96722 14.2447 3.96722C14.1855 3.96722 14.1263 3.98657 14.0868 4.03493C14.0474 4.08329 14.0178 4.13165 14.0178 4.19936V4.45083C14.0178 5.06985 13.8994 5.66953 13.6626 6.24987C13.258 7.25578 12.2812 8.06824 10.9887 8.50349C10.2289 8.75497 9.74544 9.38366 9.46917 9.86728C8.89689 10.8732 7.93981 11.5116 6.92353 11.5793C6.32166 12.7399 6.00592 14.0167 6.00592 15.3224C6.00592 16.28 6.17366 17.2085 6.49926 18.108L6.50913 18.0887ZM5.26591 10.3509C4.6147 10.3509 4.03256 10.7378 3.79576 11.3084C3.25308 12.6625 2.97681 14.094 2.97681 15.5642C2.97681 16.7152 3.14455 17.8565 3.48989 18.9592C3.68722 19.5782 4.29896 20.0134 4.98964 20.0134H5.73952C5.84805 19.9167 5.94672 19.8103 5.96645 19.7523C5.85792 19.6072 5.75925 19.3654 5.67045 18.6787C5.23631 17.5954 5.00937 16.4541 5.01924 15.2934C5.01924 13.6008 5.49285 11.9468 6.39072 10.5056C6.42033 10.4573 6.41046 10.4186 6.39072 10.3896C6.37099 10.3509 6.34139 10.3412 6.29206 10.3412H5.24618L5.26591 10.3509Z" fill="#010101"/>
</svg>
